app/assets/images/heroicons/mini/arrow-turn-left-up.svg

<svg width="20" height="20" viewBox="0 0 20 20" fill="none" xmlns="http://www.w3.org/2000/svg">
<path fill-rule="evenodd" clip-rule="evenodd" d="M16 16.25C16 15.8358 15.6642 15.5 15.25 15.5H7.75L7.75 4.56066L9.71967 6.53033C10.0126 6.82322 10.4874 6.82322 10.7803 6.53033C11.0732 6.23744 11.0732 5.76256 10.7803 5.46967L7.53033 2.21967C7.23744 1.92678 6.76256 1.92678 6.46967 2.21967L3.21967 5.46967C2.92678 5.76256 2.92678 6.23744 3.21967 6.53033C3.51256 6.82322 3.98744 6.82322 4.28033 6.53033L6.25 4.56066L6.25 16.25C6.25 16.6642 6.58579 17 7 17H15.25C15.6642 17 16 16.6642 16 16.25Z" fill="black"/>
</svg>

<svg xmlns="http://www.w3.org/2000/svg" viewBox="0 0 20 20" fill="currentColor" aria-hidden="true" data-slot="icon">
  <path fill-rule="evenodd" d="M16 16.25a.75.75 0 0 0-.75-.75h-7.5V4.56l1.97 1.97a.75.75 0 1 0 1.06-1.06L7.53 2.22a.75.75 0 0 0-1.06 0L3.22 5.47a.75.75 0 0 0 1.06 1.06l1.97-1.97v11.69c0 .414.336.75.75.75h8.25a.75.75 0 0 0 .75-.75Z" clip-rule="evenodd"/>
</svg>
